svg/aws-cloudwatch.svg

<?xml version="1.0" encoding="UTF-8"?>
<svg xmlns="http://www.w3.org/2000/svg" xmlns:xlink="http://www.w3.org/1999/xlink" width="32" height="32" viewBox="0 0 32 32">
<path fill-rule="nonzero" fill="rgb(90.588236%, 8.235294%, 48.235294%)" fill-opacity="1" d="M 0.203125 0.203125 L 31.796875 0.203125 L 31.796875 31.796875 L 0.203125 31.796875 Z M 0.203125 0.203125 "/>
<path fill-rule="nonzero" fill="rgb(100%, 100%, 100%)" fill-opacity="1" d="M 22.664062 19.300781 C 22.664062 17.550781 21.230469 16.125 19.464844 16.125 C 17.703125 16.125 16.261719 17.550781 16.261719 19.300781 C 16.261719 21.054688 17.703125 22.480469 19.464844 22.480469 C 21.230469 22.480469 22.664062 21.054688 22.664062 19.300781 M 23.5625 19.300781 C 23.5625 21.550781 21.722656 23.375 19.464844 23.375 C 17.203125 23.375 15.363281 21.550781 15.363281 19.300781 C 15.363281 17.058594 17.203125 15.230469 19.464844 15.230469 C 21.722656 15.230469 23.5625 17.058594 23.5625 19.300781 M 27.347656 25.441406 L 24.207031 22.632812 C 23.953125 22.988281 23.660156 23.3125 23.332031 23.597656 L 26.472656 26.410156 C 26.742188 26.648438 27.152344 26.628906 27.394531 26.363281 C 27.636719 26.09375 27.613281 25.683594 27.347656 25.441406 M 19.464844 24.183594 C 22.171875 24.183594 24.375 21.996094 24.375 19.300781 C 24.375 16.613281 22.171875 14.425781 19.464844 14.425781 C 16.757812 14.425781 14.554688 16.613281 14.554688 19.300781 C 14.554688 21.996094 16.757812 24.183594 19.464844 24.183594 M 28.066406 26.960938 C 27.488281 27.597656 26.507812 27.648438 25.867188 27.074219 L 22.605469 24.152344 C 21.667969 24.757812 20.578125 25.078125 19.464844 25.078125 C 16.257812 25.078125 13.652344 22.484375 13.652344 19.300781 C 13.652344 16.121094 16.257812 13.527344 19.464844 13.527344 C 22.667969 13.527344 25.277344 16.121094 25.277344 19.300781 C 25.277344 20.183594 25.070312 21.054688 24.671875 21.84375 L 27.949219 24.777344 C 28.585938 25.347656 28.636719 26.328125 28.066406 26.960938 M 7.523438 11.507812 C 7.523438 11.742188 7.535156 11.972656 7.5625 12.199219 C 7.578125 12.328125 7.539062 12.457031 7.453125 12.554688 C 7.382812 12.628906 7.292969 12.675781 7.195312 12.695312 C 6.089844 12.976562 4.261719 13.839844 4.261719 16.421875 C 4.261719 18.371094 5.347656 19.441406 6.253906 20.007812 C 6.5625 20.195312 6.929688 20.300781 7.316406 20.304688 L 12.75 20.308594 L 12.75 21.203125 L 7.3125 21.199219 C 6.769531 21.203125 6.238281 21.050781 5.777344 20.761719 C 4.878906 20.207031 3.363281 18.90625 3.363281 16.421875 C 3.363281 13.421875 5.421875 12.316406 6.636719 11.925781 C 6.625 11.789062 6.617188 11.652344 6.617188 11.511719 C 6.617188 9.066406 8.292969 6.527344 10.507812 5.605469 C 13.101562 4.527344 15.847656 5.0625 17.851562 7.035156 C 18.476562 7.648438 18.984375 8.394531 19.378906 9.25 C 19.902344 8.816406 20.558594 8.578125 21.238281 8.574219 C 22.585938 8.574219 24.101562 9.59375 24.367188 11.8125 C 25.628906 12.097656 28.292969 13.109375 28.292969 16.453125 C 28.292969 17.789062 27.871094 18.894531 27.039062 19.734375 L 26.398438 19.105469 C 27.058594 18.441406 27.390625 17.546875 27.390625 16.453125 C 27.390625 13.527344 24.921875 12.800781 23.863281 12.621094 C 23.742188 12.601562 23.636719 12.535156 23.566406 12.433594 C 23.496094 12.339844 23.472656 12.21875 23.492188 12.101562 C 23.347656 10.285156 22.257812 9.46875 21.238281 9.46875 C 20.59375 9.46875 19.988281 9.78125 19.582031 10.324219 C 19.480469 10.457031 19.320312 10.527344 19.15625 10.503906 C 18.992188 10.480469 18.855469 10.367188 18.800781 10.210938 C 18.429688 9.195312 17.894531 8.339844 17.21875 7.671875 C 15.476562 5.960938 13.101562 5.5 10.855469 6.433594 C 8.984375 7.207031 7.523438 9.4375 7.523438 11.511719 "/>
</svg>

<svg role="img" viewBox="0 0 32 32" xmlns="http://www.w3.org/2000/svg"><path d="M.203.203h31.594v31.594H.203Zm0 0" fill="rgb(90.588236%, 8.235294%, 48.235294%)"/><path d="M22.664 19.3c0-1.75-1.434-3.175-3.2-3.175-1.76 0-3.202 1.426-3.202 3.176 0 1.754 1.441 3.18 3.203 3.18 1.765 0 3.2-1.426 3.2-3.18m.898 0c0 2.25-1.84 4.074-4.098 4.074-2.262 0-4.102-1.824-4.102-4.074 0-2.242 1.84-4.07 4.102-4.07 2.258 0 4.098 1.828 4.098 4.07m3.785 6.14-3.141-2.808c-.254.355-.547.68-.875.965l3.14 2.812c.27.238.68.219.923-.047a.654.654 0 0 0-.047-.922m-7.883-1.257c2.707 0 4.91-2.188 4.91-4.883 0-2.688-2.203-4.875-4.91-4.875s-4.91 2.187-4.91 4.875c0 2.695 2.203 4.883 4.91 4.883m8.601 2.777a1.56 1.56 0 0 1-2.199.113l-3.262-2.922a5.8 5.8 0 0 1-3.14.926c-3.207 0-5.813-2.594-5.813-5.777 0-3.18 2.606-5.774 5.813-5.774 3.203 0 5.812 2.594 5.812 5.774 0 .883-.207 1.754-.605 2.543l3.277 2.933c.637.57.688 1.551.117 2.184M7.523 11.508q-.001.351.04.691a.45.45 0 0 1-.11.356.5.5 0 0 1-.258.14c-1.105.282-2.933 1.145-2.933 3.727 0 1.95 1.086 3.02 1.992 3.586.309.187.676.293 1.062.297l5.434.004v.894L7.313 21.2a2.85 2.85 0 0 1-1.536-.437c-.898-.555-2.414-1.856-2.414-4.34 0-3 2.059-4.106 3.274-4.496a5 5 0 0 1-.02-.414c0-2.446 1.676-4.985 3.89-5.907 2.595-1.078 5.34-.543 7.345 1.43.625.613 1.132 1.36 1.527 2.215a2.94 2.94 0 0 1 1.86-.676c1.347 0 2.863 1.02 3.128 3.239 1.262.285 3.926 1.296 3.926 4.64 0 1.336-.422 2.442-1.254 3.281l-.64-.629c.66-.664.992-1.558.992-2.652 0-2.926-2.47-3.652-3.528-3.832a.44.44 0 0 1-.297-.187.43.43 0 0 1-.074-.332c-.144-1.817-1.234-2.633-2.254-2.633-.644 0-1.25.312-1.656.855a.46.46 0 0 1-.426.18.44.44 0 0 1-.355-.293c-.371-1.016-.906-1.871-1.582-2.54-1.742-1.71-4.117-2.171-6.364-1.237-1.87.773-3.332 3.004-3.332 5.078" fill="rgb(100%, 100%, 100%)"/></svg>
